X:23
T:Believe Me, If All Those Endearing Young Charms
% Four-part piano arrangement for standard notation.
C:Thomas Moore/Irish Air "My Lodging is in the Cold Ground"
S:Source "The One Hundred and One Best Songs" - The Cable Company - 1919 - Chicago, Illinois
M:6/8
L:1/8
Q:1/4=80
%%staves [(1 2) (3 4)]
K:Eb
V:1 clef=treble
"^Andantino"G/F/ | E > F E E G B | A c e e2 d/ c/ | B > A G
w:1.~Be\-* lieve me, if all those en-dear-ing young charms, Which I gaze on so
w:2.~It* is not while beau-ty and youth are thine own, And thy cheeks un-pro\-
V:2 clef=treble
"^Andantino"D | B, > B, B, B, E E | E A A A2 F/ F/ | G > D E
V:3 clef=bass
%%MIDI transpose -24
%%jsastem=dn
"^Andantino"a | g > a g g b b | c' e' c' c'2 b/ d'/ | e' > b b
V:4 clef=bass
%%MIDI transpose -24
%%jsastem=dn
"^Andantino"B | e > e e e e g | a a a a2 a/ a/ | g > f e
V:1
F > E F | G3-G2 G/ F/ | E > F E E G B | A c e e2 (d/ c/) |
